image/values/icon-7.svg

<svg width="48" height="48" viewBox="0 0 48 48" fill="none" xmlns="http://www.w3.org/2000/svg">
<path d="M23.9969 45.5209C21.8169 45.5209 19.6569 44.8809 17.9569 43.6209L9.35687 37.2009C7.07687 35.5009 5.29688 31.9409 5.29688 29.1209V14.2409C5.29688 11.1609 7.55687 7.88086 10.4569 6.80086L20.4369 3.06086C22.4169 2.32086 25.5369 2.32086 27.5169 3.06086L37.4969 6.80086C40.3969 7.88086 42.6569 11.1609 42.6569 14.2409V29.1009C42.6569 31.9409 40.8769 35.4809 38.5969 37.1809L29.9969 43.6009C28.3369 44.8809 26.1769 45.5209 23.9969 45.5209ZM21.4969 5.88086L11.5169 9.62086C9.81688 10.2609 8.31687 12.4209 8.31687 14.2609V29.1209C8.31687 31.0209 9.65687 33.6809 11.1569 34.8009L19.7569 41.2209C22.0569 42.9409 25.9369 42.9409 28.2569 41.2209L36.8569 34.8009C38.3769 33.6609 39.6969 31.0209 39.6969 29.1209V14.2409C39.6969 12.4209 38.1969 10.2609 36.4969 9.60086L26.5169 5.86086C25.1569 5.38086 22.8369 5.38086 21.4969 5.88086Z" fill="#2E2E2E"/>
<path d="M21.3166 28.4602C20.9366 28.4602 20.5566 28.3202 20.2566 28.0202L17.0366 24.8002C16.4566 24.2202 16.4566 23.2602 17.0366 22.6802C17.6166 22.1002 18.5766 22.1002 19.1566 22.6802L21.3166 24.8402L28.8566 17.3002C29.4366 16.7202 30.3966 16.7202 30.9766 17.3002C31.5566 17.8802 31.5566 18.8402 30.9766 19.4202L22.3766 28.0202C22.0766 28.3202 21.6966 28.4602 21.3166 28.4602Z" fill="#C63031"/>
</svg>

<svg xmlns="http://www.w3.org/2000/svg" width="48" height="48" fill="none"><path fill="#2E2E2E" d="M23.997 45.52c-2.18 0-4.34-.64-6.04-1.9l-8.6-6.42c-2.28-1.7-4.06-5.26-4.06-8.08V14.24c0-3.08 2.26-6.36 5.16-7.44l9.98-3.74c1.98-.74 5.1-.74 7.08 0l9.98 3.74c2.9 1.08 5.16 4.36 5.16 7.44V29.1c0 2.84-1.78 6.38-4.06 8.08l-8.6 6.42c-1.66 1.28-3.82 1.92-6 1.92Zm-2.5-39.64-9.98 3.74c-1.7.64-3.2 2.8-3.2 4.64v14.86c0 1.9 1.34 4.56 2.84 5.68l8.6 6.42c2.3 1.72 6.18 1.72 8.5 0l8.6-6.42c1.52-1.14 2.84-3.78 2.84-5.68V14.24c0-1.82-1.5-3.98-3.2-4.64l-9.98-3.74c-1.36-.48-3.68-.48-5.02.02Z"/><path fill="#C63031" d="M21.317 28.46c-.38 0-.76-.14-1.06-.44l-3.22-3.22c-.58-.58-.58-1.54 0-2.12.58-.58 1.54-.58 2.12 0l2.16 2.16 7.54-7.54c.58-.58 1.54-.58 2.12 0 .58.58.58 1.54 0 2.12l-8.6 8.6c-.3.3-.68.44-1.06.44Z"/></svg>
